src/images/pages/affiliates/payment-icon.svg

<svg xmlns="http://www.w3.org/2000/svg" viewBox="-17361.08 -11906 82.191 66.06"><defs><style>.cls-1,.cls-2{fill:none;stroke:#2a3052;stroke-miterlimit:10;stroke-width:2px}.cls-2{fill:#fff}</style></defs><g id="Group_1286" data-name="Group 1286" transform="translate(-17360.994 -11906)"><g id="Group_1285" data-name="Group 1285" transform="translate(.994 1)"><g id="Group_1283" data-name="Group 1283"><path id="Path_5903" data-name="Path 5903" class="cls-1" d="M16.52 8h11.812l13.224 20.628a21.358 21.358 0 0 1-11.284 29.444 20.628 20.628 0 0 1-15.868 0A21.336 21.336 0 0 1 3.3 28.628z" transform="translate(-.994 4.342)"/><path id="Path_5904" data-name="Path 5904" class="cls-1" d="M13.744 13.342L4.4 1h30.854l-9.168 12.342z" transform="translate(1.605 -1)"/></g><g id="Group_1284" data-name="Group 1284" transform="translate(15.526 24.683)"><path id="Line_232" data-name="Line 232" class="cls-1" transform="translate(5.642)" d="M0 0v5.289"/><path id="Line_233" data-name="Line 233" class="cls-1" transform="translate(5.642 24.683)" d="M0 0v5.289"/><path id="Path_5905" data-name="Path 5905" class="cls-1" d="M21.613 21.35v-.705A2.712 2.712 0 0 0 18.968 18H12.8a2.972 2.972 0 0 0-3 3v1.234a3.109 3.109 0 0 0 1.41 2.645l8.639 4.937a3.413 3.413 0 0 1 1.763 3v1.41a3.348 3.348 0 0 1-3.35 3.35h-5.817a2.712 2.712 0 0 1-2.645-2.65v-.706" transform="translate(-9.8 -12.711)"/></g></g><path id="Line_234" data-name="Line 234" class="cls-2" transform="translate(38.029 18.631)" d="M0 0h44.077"/><path id="Line_235" data-name="Line 235" class="cls-2" transform="translate(43.319 27.446)" d="M0 0h35.262"/><path id="Line_236" data-name="Line 236" class="cls-2" transform="translate(46.845 36.262)" d="M0 0h28.209"/><path id="Line_237" data-name="Line 237" class="cls-2" transform="translate(48.608 45.077)" d="M0 0h21.157"/></g></svg>

<svg xmlns="http://www.w3.org/2000/svg" viewBox="-17361.08 -11906 82.191 66.06">
  <defs>
    <style>
      .cls-1 {
        fill: none;
      }

      .cls-1, .cls-2 {
        stroke: #2a3052;
        stroke-miterlimit: 10;
        stroke-width: 2px;
      }

      .cls-2 {
        fill: #fff;
      }
    </style>
  </defs>
  <g id="Group_1286" data-name="Group 1286" transform="translate(-17360.994 -11906)">
    <g id="Group_1285" data-name="Group 1285" transform="translate(0.994 1)">
      <g id="Group_1283" data-name="Group 1283">
        <path id="Path_5903" data-name="Path 5903" class="cls-1" d="M16.52,8H28.332L41.556,28.628A21.358,21.358,0,0,1,30.272,58.072h0a20.628,20.628,0,0,1-15.868,0h0A21.336,21.336,0,0,1,3.3,28.628Z" transform="translate(-0.994 4.342)"/>
        <path id="Path_5904" data-name="Path 5904" class="cls-1" d="M13.744,13.342,4.4,1H35.254L26.086,13.342Z" transform="translate(1.605 -1)"/>
      </g>
      <g id="Group_1284" data-name="Group 1284" transform="translate(15.526 24.683)">
        <line id="Line_232" data-name="Line 232" class="cls-1" y2="5.289" transform="translate(5.642)"/>
        <line id="Line_233" data-name="Line 233" class="cls-1" y2="5.289" transform="translate(5.642 24.683)"/>
        <path id="Path_5905" data-name="Path 5905" class="cls-1" d="M21.613,21.35v-.705A2.712,2.712,0,0,0,18.968,18H12.8a2.972,2.972,0,0,0-3,3v1.234a3.109,3.109,0,0,0,1.41,2.645l8.639,4.937a3.413,3.413,0,0,1,1.763,3v1.41a3.348,3.348,0,0,1-3.35,3.35H12.445A2.712,2.712,0,0,1,9.8,34.926V34.22" transform="translate(-9.8 -12.711)"/>
      </g>
    </g>
    <line id="Line_234" data-name="Line 234" class="cls-2" x2="44.077" transform="translate(38.029 18.631)"/>
    <line id="Line_235" data-name="Line 235" class="cls-2" x2="35.262" transform="translate(43.319 27.446)"/>
    <line id="Line_236" data-name="Line 236" class="cls-2" x2="28.209" transform="translate(46.845 36.262)"/>
    <line id="Line_237" data-name="Line 237" class="cls-2" x2="21.157" transform="translate(48.608 45.077)"/>
  </g>
</svg>
